assets/lens/original.svg

<svg viewBox="0 0 24 24" xmlns="http://www.w3.org/2000/svg" fill="#3D90CE"><path d="m9.255 3.5h-5.755v4.255l3.75 4.715zm-5.755 5.455v7.125h5.665zm16.045-5.455h-9.525l-1.15 5.135zm-.9 17h1.855v-8.4l-4.32-2.105zm-5.79-12.95 7.645 3.72v-7.4zm-9.355 9.275v3.675h6.88l2.875-3.675zm7.83 3.675h6.545l-1.51-6.435zm-11.33-20.5h24v24h-24z"/></svg>

<svg xmlns="http://www.w3.org/2000/svg" fill="#3d90ce" viewBox="0 0 24 24"><path d="M9.255 3.5H3.5v4.255l3.75 4.715zM3.5 8.955v7.125h5.665zM19.545 3.5H10.02L8.87 8.635zm-.9 17H20.5v-8.4l-4.32-2.105zm-5.79-12.95 7.645 3.72v-7.4zM3.5 16.825V20.5h6.88l2.875-3.675zm7.83 3.675h6.545l-1.51-6.435zM0 0h24v24H0z"/></svg>
